X:1
T:Guide, 77.77 D
T:Marcus Morris Wells, 1858
T:Guide, 77.77 D
T:Public Domain
C:Marcus Morris Wells, 1858
Z:Public Domain
%%score ( 1 2 ) ( 3 4 )
L:1/8
M:3/4
K:G
V:1 treble 
V:2 treble 
V:3 bass 
V:4 bass 
V:1
 D4 D2 | [DG]4 [DG]2 | (B3 A) G2 | [FA]6 | [GB]4 [GB]2 | [Gd]4 [DG]2 | (F3 G) [DA]2 | [DG]6 D4 D2 | %8
 [DG]4 [DG]2 | (B3 A) G2 | [FA]6 | [GB]4 [GB]2 | [Gd]4 [DG]2 | (F3 G) [DA]2 | [DG]6 [Fc]4 [Fc]2 | %15
 [GB]4 [GB]2 | [FA]3 [GB] [Ac]2 | [GB]6 | [Gd]4 [Gd]2 | [GB]4 [GB]2 | [Ac]4 [GB]2 | [FA]6 | D4 D2 | %23
 [DG]4 [DG]2 | (B3 A) G2 | [FA]6 | [GB]4 [GB]2 | [Gd]4 [DG]2 | (F3 G) [DA]2 | [DG]6 |] %30
V:2
 D4 D2 | x6 | D4 x2 | x6 | x6 | x6 | D4 x2 | x12 | x6 | D4 G2 | x6 | x6 | x6 | D4 x2 | x12 | x6 | %16
 x6 | x6 | x6 | x6 | x6 | x6 | D4 D2 | x6 | D4 x2 | x6 | x6 | x6 | D4 x2 | x6 |] %30
V:3
 [G,B,]4 [G,B,]2 | [G,B,]4 [G,B,]2 | (D3 C) [G,B,]2 | [D,D]6 | [G,D]4 [G,D]2 | [G,B,]4 [G,B,]2 | %6
 (A,3 B,) [D,C]2 | [G,,B,]6 [G,B,]4 [G,B,]2 | [G,B,]4 [G,B,]2 | (D3 C) [G,B,]2 | [D,D]6 | %11
 [G,D]4 [G,D]2 | [G,B,]4 [G,B,]2 | (A,3 B,) [D,C]2 | [G,,B,]6 [D,A,]4 [D,A,]2 | G,4 G,2 | %16
 [D,D]4 [D,D]2 | [G,D]6 | [G,B,]4 [G,B,]2 | [G,D]4 [G,D]2 | [F,D]4 [G,D]2 | [D,D]6 | %22
 [G,,B,]4 [G,,B,]2 | [G,,B,]4 [G,,B,]2 | (D3 C) [G,B,]2 | [D,D]6 | [G,D]4 [G,D]2 | %27
 [G,B,]4 [G,B,]2 | (A,3 B,) [D,C]2 | [G,,B,]6 |] %30
V:4
 x6 | x6 | G,4 x2 | x6 | x6 | x6 | D,4 x2 | x12 | x6 | G,4 x2 | x6 | x6 | x6 | D,4 x2 | x12 | %15
 G,4 G,2 | x6 | x6 | x6 | x6 | x6 | x6 | x6 | x6 | G,4 x2 | x6 | x6 | x6 | D,4 x2 | x6 |] %30

